Assets/ico-backward.svg

<svg width="24" height="24" viewBox="0 0 24 24" fill="none" xmlns="http://www.w3.org/2000/svg">
<path d="M17.8906 4.20444C19.2197 3.31836 21 4.27115 21 5.86854V18.1315C21 19.7289 19.2197 20.6817 17.8906 19.7956L8.69337 13.6641C7.50591 12.8725 7.50591 11.1276 8.69337 10.3359L17.8906 4.20444Z" fill="white"/>
<path fill-rule="evenodd" clip-rule="evenodd" d="M4.5 3.5C5.05228 3.5 5.5 3.94772 5.5 4.5V19.5C5.5 20.0523 5.05228 20.5 4.5 20.5H3.5C2.94772 20.5 2.5 20.0523 2.5 19.5V4.5C2.5 3.94772 2.94772 3.5 3.5 3.5H4.5Z" fill="white"/>
</svg>

<svg xmlns="http://www.w3.org/2000/svg" width="24" height="24" fill="none" viewBox="0 0 24 24"><path fill="#fff" d="M17.89 4.204C19.22 3.318 21 4.271 21 5.87v12.263c0 1.597-1.78 2.55-3.11 1.664l-9.197-6.132a2 2 0 0 1 0-3.328z"/><path fill="#fff" fill-rule="evenodd" d="M4.5 3.5a1 1 0 0 1 1 1v15a1 1 0 0 1-1 1h-1a1 1 0 0 1-1-1v-15a1 1 0 0 1 1-1z" clip-rule="evenodd"/></svg>
